!!!OTL: OLL MANN WULL RIEDEN, WOHL HAD HE KEEN PEERD
!!!ARE: Europa, Mitteleuropa, Deutschland, Pommern
!!!SCT: Z0230
!!!YEM: Copyright 1995, estate of Helmut Schaffrath.
**kern
*ICvox
*Ivox
*M3/8
*k[b-]
*F:
{8f
8f
8g
=1
8e
8d
8c}
=2
{8f
16f
16e
16f
16a
=3
4.g}
=4
{8b-
8b-
16b-
16b-
=5
8a
8g
8f}
=6
{8f
8g
8a
=7
8f
16e
16d
8c}
=8
{8f
8f
8a
=9
8g
8f
8r}
==
!!!AGN: Erzaehlung, lustige Romanze, Spott - Lied
!!!ONB: ESAC (Essen Associative Code) Database: ZUCCAL
!!!AMT: simple triple
!!!AIN: vox
!!!EED: Helmut Schaffrath
!!!EEV: 1.0
*-
